resources/icons/color/kqldatabase.svg

<svg width="64" height="64" viewBox="0 0 64 64" fill="none" xmlns="http://www.w3.org/2000/svg">
<path d="M6 13C6 9.13401 9.13401 6 13 6H51C54.866 6 58 9.13401 58 13V51C58 54.866 54.866 58 51 58H13C9.13401 58 6 54.866 6 51V13Z" fill="url(#paint0_linear_41743_62815)"/>
<path d="M6 13C6 9.13401 9.13401 6 13 6H51C54.866 6 58 9.13401 58 13V51C58 54.866 54.866 58 51 58H13C9.13401 58 6 54.866 6 51V13Z" fill="url(#paint1_radial_41743_62815)" fill-opacity="0.2"/>
<path fill-rule="evenodd" clip-rule="evenodd" d="M51 7H13C9.68629 7 7 9.68629 7 13V51C7 54.3137 9.68629 57 13 57H51C54.3137 57 57 54.3137 57 51V13C57 9.68629 54.3137 7 51 7ZM13 6C9.13401 6 6 9.13401 6 13V51C6 54.866 9.13401 58 13 58H51C54.866 58 58 54.866 58 51V13C58 9.13401 54.866 6 51 6H13Z" fill="url(#paint2_linear_41743_62815)"/>
<path d="M21 24.8658V41.0145H21.0027C21.0386 41.8076 21.429 42.5087 22.0031 43.0914C22.6041 43.7012 23.4418 44.2209 24.4272 44.6439C26.4009 45.491 29.0854 46.0002 32.0191 46.0002C34.9528 46.0002 37.6282 45.491 39.5929 44.6434C40.5739 44.2203 41.407 43.7001 42.0043 43.0898C42.58 42.5017 42.9682 41.7941 42.9981 40.9946H43L42.9999 24.8658C42.8891 24.9856 42.7734 25.0982 42.6552 25.2035C41.934 25.846 40.9789 26.3533 39.932 26.7478C37.8266 27.5411 35.0219 28 32 28C28.9781 28 26.1734 27.5411 24.068 26.7478C23.0211 26.3533 22.066 25.846 21.3448 25.2035C21.2266 25.0982 21.1109 24.9856 21 24.8658Z" fill="url(#paint3_linear_41743_62815)"/>
<path d="M42.9999 22.4837L43 22.5L42.9999 22.5163C42.9941 23.2756 42.5818 23.9297 41.99 24.4568C41.3928 24.9889 40.5604 25.4424 39.5794 25.8121C37.6131 26.553 34.9333 27 32 27C29.0667 27 26.3869 26.553 24.4206 25.8121C23.5695 25.4914 22.8302 25.1075 22.2594 24.664L22.2222 24.6349C22.1485 24.5765 22.0777 24.5172 22.01 24.4568C21.414 23.9259 21 23.2663 21 22.5C21 22.4277 21.0037 22.3564 21.0108 22.2861C21.0132 22.2632 21.0159 22.2404 21.019 22.2177C21.1063 21.5708 21.4885 21.0077 22.01 20.5432C22.6072 20.0111 23.4396 19.5576 24.4206 19.1879C26.3869 18.447 29.0667 18 32 18C34.9333 18 37.6131 18.447 39.5794 19.1879C40.5604 19.5576 41.3928 20.0111 41.99 20.5432C42.0372 20.5852 42.0831 20.6279 42.1279 20.6715C42.6449 21.1752 42.9946 21.7848 42.9999 22.4837Z" fill="url(#paint4_linear_41743_62815)"/>
<path fill-rule="evenodd" clip-rule="evenodd" d="M48.7905 57.24C48.5105 57.52 48.1305 57.68 47.7305 57.68C47.3305 57.68 46.9505 57.52 46.6705 57.24C46.3905 56.96 46.2305 56.58 46.2305 56.18C46.2305 55.78 46.3905 55.4 46.6705 55.12L49.5005 52.29C49.6505 52.14 49.8305 52.02 50.0305 51.95L47.6405 49.56C47.2105 49.13 47.0805 48.49 47.3205 47.92C47.5505 47.36 48.1005 47 48.7005 47H59.4905C60.3205 47 60.9905 47.67 60.9905 48.5V59.29C60.9905 59.71 60.8205 60.1 60.5205 60.38C60.2405 60.64 59.8705 60.79 59.4905 60.79C59.0905 60.79 58.7205 60.63 58.4305 60.35L56.2005 58.12C56.1305 58.31 56.0105 58.5 55.8605 58.65L53.0305 61.48C52.7505 61.76 52.3705 61.92 51.9705 61.92C51.5705 61.92 51.1905 61.76 50.9105 61.48C50.3305 60.9 50.3305 59.97 50.8805 59.39L48.7905 61.48C48.5105 61.76 48.1305 61.92 47.7305 61.92C47.3305 61.92 46.9505 61.76 46.6705 61.48C46.0905 60.9 46.0905 59.94 46.6705 59.36" fill="#F5F5F5"/>
<path fill-rule="evenodd" clip-rule="evenodd" d="M60.0005 48.5C60.0005 48.22 59.7805 48 59.5005 48H48.7105C48.2605 48 48.0405 48.54 48.3605 48.85L59.1505 59.64C59.4605 59.95 60.0005 59.73 60.0005 59.29V48.5ZM50.9205 53.71C51.1205 53.51 51.1205 53.2 50.9205 53C50.7205 52.8 50.4105 52.8 50.2105 53L47.3805 55.83C47.1805 56.03 47.1805 56.34 47.3805 56.54C47.5805 56.74 47.8905 56.74 48.0905 56.54L50.9205 53.71ZM53.0405 55.12C53.2405 55.32 53.2405 55.63 53.0405 55.83L48.0905 60.78C47.8905 60.98 47.5805 60.98 47.3805 60.78C47.1805 60.58 47.1805 60.27 47.3805 60.07L52.3305 55.12C52.5305 54.92 52.8405 54.92 53.0405 55.12ZM55.1605 57.95C55.3605 57.75 55.3605 57.44 55.1605 57.24C54.9605 57.04 54.6505 57.04 54.4505 57.24L51.6205 60.07C51.4205 60.27 51.4205 60.58 51.6205 60.78C51.8205 60.98 52.1305 60.98 52.3305 60.78L55.1605 57.95Z" fill="url(#paint5_linear_41743_62815)"/>
<defs>
<linearGradient id="paint0_linear_41743_62815" x1="20.4444" y1="6" x2="27.0222" y2="58.6222" gradientUnits="userSpaceOnUse">
<stop stop-color="white"/>
<stop offset="1" stop-color="#EBEBEB"/>
</linearGradient>
<radialGradient id="paint1_radial_41743_62815" cx="0" cy="0" r="1" gradientUnits="userSpaceOnUse" gradientTransform="translate(22.6111 19.5417) rotate(56.3099) scale(49.4762 42.8159)">
<stop offset="0.177083" stop-color="white"/>
<stop offset="1" stop-color="#B8B8B8"/>
</radialGradient>
<linearGradient id="paint2_linear_41743_62815" x1="22.7917" y1="6" x2="29.7931" y2="58.5109" gradientUnits="userSpaceOnUse">
<stop stop-color="#BBBBBB"/>
<stop offset="1" stop-color="#888888"/>
</linearGradient>
<linearGradient id="paint3_linear_41743_62815" x1="21" y1="18" x2="48.2052" y2="39.3754" gradientUnits="userSpaceOnUse">
<stop stop-color="#008EE6"/>
<stop offset="1" stop-color="#006094"/>
</linearGradient>
<linearGradient id="paint4_linear_41743_62815" x1="21" y1="18" x2="48.2052" y2="39.3754" gradientUnits="userSpaceOnUse">
<stop stop-color="#008EE6"/>
<stop offset="1" stop-color="#006094"/>
</linearGradient>
<linearGradient id="paint5_linear_41743_62815" x1="47.2305" y1="48" x2="60.1595" y2="60.769" gradientUnits="userSpaceOnUse">
<stop stop-color="#008EE6"/>
<stop offset="1" stop-color="#006094"/>
</linearGradient>
</defs>
</svg>

<svg xmlns="http://www.w3.org/2000/svg" width="64" height="64" fill="currentColor"><path fill="url(#a)" d="M6 13a7 7 0 0 1 7-7h38a7 7 0 0 1 7 7v38a7 7 0 0 1-7 7H13a7 7 0 0 1-7-7V13Z"/><path fill="url(#b)" fill-opacity=".2" d="M6 13a7 7 0 0 1 7-7h38a7 7 0 0 1 7 7v38a7 7 0 0 1-7 7H13a7 7 0 0 1-7-7V13Z"/><path fill="url(#c)" fill-rule="evenodd" d="M51 7H13a6 6 0 0 0-6 6v38a6 6 0 0 0 6 6h38a6 6 0 0 0 6-6V13a6 6 0 0 0-6-6ZM13 6a7 7 0 0 0-7 7v38a7 7 0 0 0 7 7h38a7 7 0 0 0 7-7V13a7 7 0 0 0-7-7H13Z" clip-rule="evenodd"/><path fill="url(#d)" d="M21 24.866v16.148h.003c.036.793.426 1.495 1 2.077.601.61 1.439 1.13 2.424 1.553C26.401 45.49 29.085 46 32.02 46c2.934 0 5.61-.51 7.574-1.357.98-.423 1.814-.943 2.411-1.553.576-.588.964-1.296.994-2.096H43V24.867c-.11.12-.227.232-.345.337-.721.643-1.676 1.15-2.723 1.545C37.827 27.54 35.022 28 32 28c-3.022 0-5.827-.459-7.932-1.252-1.047-.395-2.002-.902-2.723-1.545a5.022 5.022 0 0 1-.345-.337Z"/><path fill="url(#e)" d="M43 22.484v.032c-.006.76-.418 1.414-1.01 1.94-.597.533-1.43.986-2.41 1.356C37.612 26.553 34.932 27 32 27s-5.613-.447-7.58-1.188c-.85-.32-1.59-.704-2.16-1.148l-.038-.03a4.748 4.748 0 0 1-.212-.177c-.596-.531-1.01-1.19-1.01-1.957a2.127 2.127 0 0 1 .019-.282c.087-.647.47-1.21.991-1.675.597-.532 1.43-.985 2.41-1.355C26.388 18.447 29.068 18 32 18s5.613.447 7.58 1.188c.98.37 1.813.823 2.41 1.355.047.042.093.085.138.129.517.503.867 1.113.872 1.812Z"/><path fill="#F5F5F5" fill-rule="evenodd" d="M48.79 57.24a1.499 1.499 0 1 1-2.12-2.12l2.83-2.83c.15-.15.33-.27.53-.34l-2.39-2.39c-.43-.43-.56-1.07-.32-1.64.23-.56.78-.92 1.38-.92h10.79c.83 0 1.5.67 1.5 1.5v10.79c0 .42-.17.81-.47 1.09-.28.26-.65.41-1.03.41-.4 0-.77-.16-1.06-.44l-2.23-2.23c-.07.19-.19.38-.34.53l-2.83 2.83a1.499 1.499 0 0 1-2.15-2.09l-2.09 2.09a1.499 1.499 0 0 1-2.12 0c-.58-.58-.58-1.54 0-2.12" clip-rule="evenodd"/><path fill="url(#f)" fill-rule="evenodd" d="M60 48.5c0-.28-.22-.5-.5-.5H48.71c-.45 0-.67.54-.35.85l10.79 10.79a.5.5 0 0 0 .85-.35V48.5Zm-9.08 5.21c.2-.2.2-.51 0-.71-.2-.2-.51-.2-.71 0l-2.83 2.83c-.2.2-.2.51 0 .71.2.2.51.2.71 0l2.83-2.83Zm2.12 1.41c.2.2.2.51 0 .71l-4.95 4.95c-.2.2-.51.2-.71 0-.2-.2-.2-.51 0-.71l4.95-4.95c.2-.2.51-.2.71 0Zm2.12 2.83c.2-.2.2-.51 0-.71-.2-.2-.51-.2-.71 0l-2.83 2.83c-.2.2-.2.51 0 .71.2.2.51.2.71 0l2.83-2.83Z" clip-rule="evenodd"/><defs><linearGradient id="a" x1="20.444" x2="27.022" y1="6" y2="58.622" gradientUnits="userSpaceOnUse"><stop stop-color="#fff"/><stop offset="1" stop-color="#EBEBEB"/></linearGradient><linearGradient id="c" x1="22.792" x2="29.793" y1="6" y2="58.511" gradientUnits="userSpaceOnUse"><stop stop-color="#BBB"/><stop offset="1" stop-color="#888"/></linearGradient><linearGradient id="d" x1="21" x2="48.205" y1="18" y2="39.375" gradientUnits="userSpaceOnUse"><stop stop-color="#008EE6"/><stop offset="1" stop-color="#006094"/></linearGradient><linearGradient id="e" x1="21" x2="48.205" y1="18" y2="39.375" gradientUnits="userSpaceOnUse"><stop stop-color="#008EE6"/><stop offset="1" stop-color="#006094"/></linearGradient><linearGradient id="f" x1="47.23" x2="60.16" y1="48" y2="60.769" gradientUnits="userSpaceOnUse"><stop stop-color="#008EE6"/><stop offset="1" stop-color="#006094"/></linearGradient><radialGradient id="b" cx="0" cy="0" r="1" gradientTransform="rotate(56.31 -6.951 30.895) scale(49.4762 42.8159)" gradientUnits="userSpaceOnUse"><stop offset=".177" stop-color="#fff"/><stop offset="1" stop-color="#B8B8B8"/></radialGradient></defs></svg>
